SVG/People-in-need-2.svg

<svg xmlns="http://www.w3.org/2000/svg" width="48" height="32" viewBox="0 0 48 32"><g id="Layer_2" data-name="Layer 2"><g id="Icons"><path d="M13,20.97a10.938,10.938,0,0,1,4.13-8.46A7.56514,7.56514,0,0,0,12.63,11,7.68978,7.68978,0,0,0,5,18.58V22h8Z" fill="#5091cd"/><path d="M35,20.97V22h8V18.58A7.68978,7.68978,0,0,0,35.37,11a7.56514,7.56514,0,0,0-4.5,1.51A10.938,10.938,0,0,1,35,20.97Z" fill="#5091cd"/><path d="M15,22v3H33V20.97a9.00051,9.00051,0,0,0-18,0Z" fill="#5091cd"/><circle cx="24" cy="5" r="5" fill="#5091cd"/><circle cx="13" cy="5" r="4" fill="#5091cd"/><circle cx="35" cy="5" r="4" fill="#5091cd"/><path d="M46.5,29H1.5a1.5,1.5,0,0,0,0,3h45a1.5,1.5,0,0,0,0-3Z" fill="#5091cd"/></g></g></svg>

<?xml version="1.0" encoding="UTF-8"?>
<svg id="Layer_1" xmlns="http://www.w3.org/2000/svg" version="1.1" viewBox="0 0 48 32">
  <!-- Generator: Adobe Illustrator 29.2.1, SVG Export Plug-In . SVG Version: 2.1.0 Build 116)  -->
  <defs>
    <style>
      .st0 {
        fill: #009edb;
      }
    </style>
  </defs>
  <g id="Layer_2">
    <g id="Icons">
      <path class="st0" d="M13,21c0-3.3,1.5-6.4,4.1-8.5-1.3-1-2.9-1.5-4.5-1.5-4.2,0-7.6,3.4-7.6,7.6v3.4h8v-1Z"/>
      <path class="st0" d="M35,21v1h8v-3.4c0-4.2-3.4-7.5-7.6-7.6-1.6,0-3.2.5-4.5,1.5,2.6,2.1,4.1,5.2,4.1,8.5Z"/>
      <path class="st0" d="M15,22v3h18v-4c0-5-4.1-9-9.1-8.9-4.9,0-8.9,4-8.9,8.9v1Z"/>
      <circle class="st0" cx="24" cy="5" r="5"/>
      <circle class="st0" cx="13" cy="5" r="4"/>
      <circle class="st0" cx="35" cy="5" r="4"/>
      <path class="st0" d="M46.5,29H1.5c-.8,0-1.5.7-1.5,1.5s.7,1.5,1.5,1.5h45c.8,0,1.5-.7,1.5-1.5s-.7-1.5-1.5-1.5Z"/>
    </g>
  </g>
</svg>
